X:1
T:As I Walked Out
M:6/8
L:1/8
K:D
 D|E-B AB EE/2-F/2| AAB/2-c/2 d2 A| Bed eB A/2B/2| dFE F2D/2-E/2| EBA BEE/2-F/2|\
 AAB/2-c/2 d2 A/2A/2| Bed eBA/2-B/2| dFE E2||
